client/public/assets/icons/my_projects.svg

<svg width="18" height="18" viewBox="0 0 18 18" fill="none" xmlns="http://www.w3.org/2000/svg">
<path d="M1 10H7C7.55 10 8 9.55 8 9V1C8 0.45 7.55 0 7 0H1C0.45 0 0 0.45 0 1V9C0 9.55 0.45 10 1 10ZM1 18H7C7.55 18 8 17.55 8 17V13C8 12.45 7.55 12 7 12H1C0.45 12 0 12.45 0 13V17C0 17.55 0.45 18 1 18ZM11 18H17C17.55 18 18 17.55 18 17V9C18 8.45 17.55 8 17 8H11C10.45 8 10 8.45 10 9V17C10 17.55 10.45 18 11 18ZM10 1V5C10 5.55 10.45 6 11 6H17C17.55 6 18 5.55 18 5V1C18 0.45 17.55 0 17 0H11C10.45 0 10 0.45 10 1Z" fill="#545454"/>
</svg>

<?xml version="1.0" encoding="utf-8"?>
<!-- Generator: Adobe Illustrator 25.4.1, SVG Export Plug-In . SVG Version: 6.00 Build 0)  -->
<svg version="1.1" id="Capa_1" xmlns="http://www.w3.org/2000/svg" xmlns:xlink="http://www.w3.org/1999/xlink" x="0px" y="0px"
	 viewBox="0 0 18 18" style="enable-background:new 0 0 18 18;" xml:space="preserve">
<style type="text/css">
	.st0{fill:#09427D;}
</style>
<path class="st0" d="M1,10h6c0.6,0,1-0.4,1-1V1c0-0.6-0.4-1-1-1H1C0.4,0,0,0.4,0,1v8C0,9.5,0.4,10,1,10z M1,18h6c0.6,0,1-0.5,1-1v-4
	c0-0.6-0.4-1-1-1H1c-0.6,0-1,0.4-1,1v4C0,17.5,0.4,18,1,18z M11,18h6c0.5,0,1-0.5,1-1V9c0-0.6-0.5-1-1-1h-6c-0.6,0-1,0.5-1,1v8
	C10,17.5,10.4,18,11,18z M10,1v4c0,0.6,0.4,1,1,1h6c0.5,0,1-0.4,1-1V1c0-0.6-0.5-1-1-1h-6C10.4,0,10,0.4,10,1z"/>
</svg>
